docs/local/img/block4/year.svg

<svg width="740" height="262" viewBox="0 0 740 262" fill="none" xmlns="http://www.w3.org/2000/svg">
<path d="M128.5 256.692H73.8005H72.8005V255.692V111.518V111.507L72.8007 111.496L73.312 87.8081L73.3122 87.7968L74.0813 64.4178C66.2896 72.1655 60.7728 77.3436 57.5554 79.9178M127.46 255.692V6.53975V5.53975H126.46H83.1736H82.8241L82.5507 5.75742L2.28321 69.6646L1.49854 70.2893L2.12562 71.0721L27.5181 102.77L28.1443 103.552L28.9249 102.924L57.5537 79.9192M204.404 26.2908C219.853 10.4957 240.809 2.64262 267.151 2.64262C285.719 2.64262 301.984 6.99998 315.911 15.7472C329.957 24.4979 340.704 37.2136 348.161 53.848C355.617 70.3666 359.326 90.0544 359.326 112.881C359.326 162.077 348.967 198.995 328.07 223.451C307.146 247.938 275.525 260.101 233.408 260.101C218.62 260.101 207.346 259.306 199.631 257.694L198.836 257.528V256.715V214.451V213.17L200.078 213.481C209.538 215.846 219.454 217.03 229.83 217.03C247.351 217.03 261.683 214.485 272.873 209.451C284.035 204.315 292.564 196.343 298.482 185.513C304.296 174.761 307.726 159.996 308.706 141.148H308.267C301.676 151.689 294.036 159.181 285.322 163.538C276.51 167.944 265.552 170.119 252.495 170.119C230.563 170.119 213.175 163.104 200.457 148.998L200.454 148.995C187.746 134.785 181.453 115.148 181.453 90.2155C181.453 63.3202 189.07 41.9709 204.404 26.2908ZM204.404 26.2908L205.119 26.99M294.473 60.484L294.478 60.4902C301.481 69.606 305.007 80.8009 305.007 94.1352C305.007 102.903 301.35 110.714 293.914 117.597C286.494 124.352 277.591 127.73 267.151 127.73C256.007 127.73 247.872 124.286 242.544 117.544C237.157 110.729 234.408 101.428 234.408 89.5339C234.408 75.5748 237.45 65.0417 243.385 57.7875C249.305 50.5522 257.525 46.9065 268.174 46.9065C278.86 46.9065 287.605 51.4004 294.473 60.484ZM397.901 255.276L397.253 256.692H398.811H454.026H454.681L454.943 256.093L549.185 40.3422L549.268 40.1507V39.9419V6.88059V5.88059H548.268H369.498H368.498V6.88059V51.1895V52.1895H369.498H490.814L397.901 255.276ZM737.188 256.692H738.188V255.692V211.383V210.383H737.188H629.631V209.43L661.345 179.571L661.349 179.568C682.709 160.025 697.64 144.929 706.1 134.298C714.667 123.674 720.974 113.307 724.995 103.196C729.134 92.9609 731.201 82.0415 731.201 70.4469C731.201 57.0924 727.86 45.199 721.157 34.7989C714.458 24.4041 705.05 16.3324 692.968 10.579C680.883 4.82404 666.984 1.96094 651.297 1.96094C639.417 1.96094 628.656 3.15995 619.021 5.56828C609.402 7.85898 600.517 11.1825 592.371 15.5423C584.211 19.9095 573.98 27.3479 561.69 37.8173L560.932 38.4629L561.574 39.2236L590.204 73.137L590.843 73.8937L591.606 73.2623C601.445 65.12 610.865 58.8626 619.867 54.4743C628.826 50.1067 638.05 47.9291 647.548 47.9291C656.57 47.9291 663.638 50.3199 668.864 55.002L668.872 55.0087C674.154 59.6441 676.882 66.7661 676.882 76.582C676.882 83.1574 675.657 89.5073 673.205 95.6384C670.75 101.775 666.716 108.509 661.074 115.845C655.432 123.066 643.372 136.15 624.85 155.126L624.848 155.128L562.309 218.349L562.02 218.641V219.052V255.692V256.692H563.02H737.188Z" stroke="#D73B3B" stroke-width="2"/>
</svg>

<svg width="740" height="262" viewBox="0 0 740 262" fill="none" xmlns="http://www.w3.org/2000/svg"><path d="M128.5 256.692H72.8V111.496l.512-23.688v-.011l.77-23.38c-7.792 7.748-13.31 12.927-16.527 15.5m69.905 175.775V5.54H82.824l-.273.217L2.283 69.665l-.784.624.627.783 25.392 31.698.626.782.78-.628 28.63-23.005m146.85-53.628c15.449-15.795 36.405-23.648 62.747-23.648 18.568 0 34.833 4.357 48.76 13.104 14.046 8.75 24.793 21.467 32.25 38.101 7.456 16.519 11.165 36.206 11.165 59.033 0 49.196-10.359 86.114-31.256 110.57-20.924 24.487-52.545 36.65-94.662 36.65-14.788 0-26.062-.795-33.777-2.407l-.795-.166V213.17l1.242.311c9.46 2.365 19.376 3.549 29.752 3.549 17.521 0 31.853-2.545 43.043-7.579 11.162-5.136 19.691-13.108 25.609-23.938 5.814-10.752 9.244-25.517 10.224-44.365h-.439c-6.591 10.541-14.231 18.033-22.945 22.39-8.812 4.406-19.77 6.581-32.827 6.581-21.932 0-39.32-7.015-52.038-21.121l-.003-.003c-12.708-14.21-19.001-33.847-19.001-58.78 0-26.895 7.617-48.244 22.951-63.924zm0 0l.715.699m89.354 33.494l.005.006c7.003 9.116 10.529 20.31 10.529 33.645 0 8.768-3.657 16.579-11.093 23.462-7.42 6.755-16.323 10.133-26.763 10.133-11.144 0-19.279-3.444-24.607-10.186-5.387-6.815-8.136-16.116-8.136-28.01 0-13.96 3.042-24.492 8.977-31.747 5.92-7.235 14.14-10.88 24.789-10.88 10.686 0 19.431 4.493 26.299 13.577zm103.428 194.792l-.648 1.416h57.428l.262-.599 94.242-215.75.083-.192V5.88h-180.77v46.31h122.316l-92.913 203.086zm339.287 1.416h1v-46.309H629.631v-.953l31.714-29.859.004-.003c21.36-19.543 36.291-34.639 44.751-45.27 8.567-10.624 14.874-20.991 18.895-31.102 4.139-10.235 6.206-21.154 6.206-32.75 0-13.354-3.341-25.247-10.044-35.647-6.699-10.395-16.107-18.467-28.189-24.22-12.085-5.755-25.984-8.618-41.671-8.618-11.88 0-22.641 1.199-32.276 3.607-9.619 2.291-18.504 5.614-26.65 9.974-8.16 4.368-18.391 11.806-30.681 22.275l-.758.646.642.76 28.63 33.914.639.757.763-.632c9.839-8.142 19.259-14.4 28.261-18.788 8.959-4.367 18.183-6.545 27.681-6.545 9.022 0 16.09 2.39 21.316 7.073l.008.007c5.282 4.635 8.01 11.757 8.01 21.573a50.855 50.855 0 01-3.677 19.056c-2.455 6.137-6.489 12.871-12.131 20.207-5.642 7.221-17.702 20.305-36.224 39.281l-.002.002-62.539 63.221-.289.292v38.051h175.168z" stroke="#D73B3B" stroke-width="2"/></svg>
